styles/1/Numix/128/places/brown-folder-books.svg

<?xml version="1.0" encoding="UTF-8" standalone="no"?>
<svg
   xmlns:dc="http://purl.org/dc/elements/1.1/"
   xmlns:cc="http://creativecommons.org/ns#"
   xmlns:rdf="http://www.w3.org/1999/02/22-rdf-syntax-ns#"
   xmlns:svg="http://www.w3.org/2000/svg"
   xmlns="http://www.w3.org/2000/svg"
   xmlns:sodipodi="http://sodipodi.sourceforge.net/DTD/sodipodi-0.dtd"
   xmlns:inkscape="http://www.inkscape.org/namespaces/inkscape"
   width="128"
   height="128"
   viewBox="0 0 102.4 102.4"
   version="1.1"
   id="svg2"
   inkscape:version="0.91 r"
   sodipodi:docname="brown-folder-books.svg">
  <metadata
     id="metadata11">
    <rdf:RDF>
      <cc:Work
         rdf:about="">
        <dc:format>image/svg+xml</dc:format>
        <dc:type
           rdf:resource="http://purl.org/dc/dcmitype/StillImage" />
      </cc:Work>
    </rdf:RDF>
  </metadata>
  <defs
     id="defs9" />
  <sodipodi:namedview
     pagecolor="#ffffff"
     bordercolor="#666666"
     borderopacity="1"
     objecttolerance="10"
     gridtolerance="10"
     guidetolerance="10"
     inkscape:pageopacity="0"
     inkscape:pageshadow="2"
     inkscape:window-width="1366"
     inkscape:window-height="747"
     id="namedview7"
     showgrid="true"
     inkscape:zoom="3.9333334"
     inkscape:cx="67.08653"
     inkscape:cy="71.034398"
     inkscape:window-x="0"
     inkscape:window-y="21"
     inkscape:window-maximized="1"
     inkscape:current-layer="svg2">
    <inkscape:grid
       type="xygrid"
       id="grid2988"
       empspacing="5"
       visible="true"
       enabled="true"
       snapvisiblegridlinesonly="true" />
  </sodipodi:namedview>
  <path
     style="font-size:medium;font-style:normal;font-variant:normal;font-weight:normal;font-stretch:normal;text-indent:0;text-align:start;text-decoration:none;line-height:normal;letter-spacing:normal;word-spacing:normal;text-transform:none;direction:ltr;block-progression:tb;writing-mode:lr-tb;text-anchor:start;baseline-shift:baseline;color:#000000;fill:#8d6e63;fill-opacity:1;fill-rule:nonzero;stroke:none;stroke-width:2.28612947;marker:none;visibility:visible;display:inline;overflow:visible;enable-background:accumulate;font-family:Sans;-inkscape-font-specification:Sans"
     d="M 12.125 20.001953 C 9.8661791 20.223901 7.9631754 22.357552 8 24.626953 L 8 103.375 C 7.972 105.80414 10.195861 108.02793 12.625 108 L 115.375 108 C 117.80414 108.028 120.02793 105.80414 120 103.375 L 120 32.626953 C 120.028 30.197816 117.80414 27.974018 115.375 28.001953 L 76 28.001953 L 76 24.626953 C 76.0275 22.239388 73.887426 20.039762 71.5 20.001953 L 12.625 20.001953 C 12.458501 19.992953 12.291498 19.992953 12.125 20.001953 z M 43 44 C 51.999999 43.999999 58 46.999999 64 52 C 69.999999 46.999999 76.000001 43.999999 85 44 L 68 56 L 60 56 L 43 44 z M 40 46.001953 L 56 57.998047 L 56 90 L 40 78.001953 L 40 46.001953 z M 88 46.001953 L 88 78.001953 L 72 90 L 72 57.998047 L 88 46.001953 z M 60 60 L 68 60 L 68 92 L 60 92 L 60 60 z "
     transform="scale(0.8,0.8)"
     id="path3912" />
</svg>

<svg xmlns="http://www.w3.org/2000/svg" width="128" height="128" viewBox="0 0 102.4 102.4">
 <path d="m 12.13 20 c -2.259 0.222 -4.162 2.356 -4.125 4.625 l 0 78.75 c -0.028 2.429 2.196 4.653 4.625 4.625 l 102.75 0 c 2.429 0.028 4.653 -2.196 4.625 -4.625 l 0 -70.75 c 0.028 -2.429 -2.196 -4.653 -4.625 -4.625 l -39.37 0 l 0 -3.375 c 0.028 -2.388 -2.113 -4.587 -4.5 -4.625 l -58.875 0 c -0.166 -0.009 -0.334 -0.009 -0.5 0 z m 30.875 23.998 c 9 0 15 3 21 8 c 6 -5 12 -8 21 -8 l -17 12 l -8 0 l -17 -12 z m -3 2 l 16 11.996 l 0 32 l -16 -11.998 l 0 -32 z m 48 0 l 0 32 l -16 11.998 l 0 -32 l 16 -11.996 z m -28 13.998 l 8 0 l 0 32 l -8 0 l 0 -32 z" transform="scale(0.8,0.8)" style="visibility:visible;fill:#8d6e63;fill-opacity:1;stroke:none;display:inline;color:#000;fill-rule:nonzero"/>
</svg>
